X: 2
T:None So Pretty, Fieldtown
M:6/8
L:1/8
S:CJS (MDT)
A:Fieldtown
P:AAB(CB)2
K:G
P:A
|:D|G2d BGB|c2A AFD|BAG EFG|DEF G2:|
P:B
G|c2d ecA|B2c dBG|Bcd eee|ABc d2D|
G2d BGB|c2A AFD|BAG EFG|DEF G2 |]
P:C
|:D|G3   d3|BG2 B3 |c3  A3 |AF2 D3 |\
BAG EFG|DEF G2:|
